X: 10332
T: SIR ROGER DE COVERLY -- Contre Dance
R: slipjig
B: K\"ohler's Violin Repository, v.1, 1885 p.33 #2
F: http://www.archive.org/details/klersviolinrepos01edin
Z: 2011 John Chambers <jc:trillian.mit.edu>
M: 9/8
L: 1/8
K: G
[|\
vG>AG (.G2.e) d>BG | (.E2.A) A>BG FED | G>AG (.G2.e) d>ef | (.g2.G) G>AG F>ED ||
vd>Bd e>ce d>BG | (.E2.A) A>BG F>ED | d>Bd e>ce d>ef |[1 (.g2.G) G>AG F>ED :|[2 g>ag f>ef g>dB "_D.C."|]

%%sep 2 1 500

